static/assets/svg/human/humanClothes/tails/tail3.svg

<svg class="tails" width="86" height="380" viewBox="202.715 584.407 163.348 380.048" xmlns="http://www.w3.org/2000/svg"><path d="M273.233 769.751c18.803 0 40.604-3.081 56.789 13.105 3.725 3.725 3.42 13.706 5.616 18.097 2.706 5.411 3.759 13.7 1.248 18.722-3.326 6.652-5.888 15.249-11.857 21.218-3.074 3.074-18.699-.023-23.09 4.368-2.837 2.837-10.939 7.635-16.225 4.992-9.762-4.88-25.956-17.357-18.098-33.074 3.243-6.486 9.678-8.747 12.482-14.354 1.213-2.426 18.721-4.368 18.721-4.368l-17.473-5.616s31.04-3.282 33.698-.625c1.438 1.438-13.712 20.274-16.849 21.842-.861.431 1.248-9.985 1.248-9.985s-32.316 15.113-19.345 28.083c13.238 13.237 36.886-.759 43.683-14.353 14.122-28.245-19.679-35.474-34.947-40.564-5.622-1.874-26.21 3.256-26.21-2.496" stroke="#000" fill="red"/></svg>

<svg class="tails" width="86" height="380" viewBox="202.71499633789062 584.406982421875 163.34844970703125 380.0480041503906" preserveAspectRatio="xMidYMid meet" xmlns="http://www.w3.org/2000/svg">
  <defs id="svgEditorDefs">
    <path id="svgEditorClosePathDefs" class="lines" fill="black" style="stroke-width: 0px; stroke: none;"/>
  </defs>
  <path d="M 273.233 769.751 C 292.036 769.751 313.837 766.67 330.022 782.856 C 333.747 786.581 333.442 796.562 335.638 800.953 C 338.344 806.364 339.397 814.653 336.886 819.675 C 333.56 826.327 330.998 834.924 325.029 840.893 C 321.955 843.967 306.33 840.87 301.939 845.261 C 299.102 848.098 291 852.896 285.714 850.253 C 275.952 845.373 259.758 832.896 267.616 817.179 C 270.859 810.693 277.294 808.432 280.098 802.825 C 281.311 800.399 298.819 798.457 298.819 798.457 C 298.819 798.457 281.346 792.841 281.346 792.841 C 281.346 792.841 312.386 789.559 315.044 792.216 C 316.482 793.654 301.332 812.49 298.195 814.058 C 297.334 814.489 299.443 804.073 299.443 804.073 C 299.443 804.073 267.127 819.186 280.098 832.156 C 293.336 845.393 316.984 831.397 323.781 817.803 C 337.903 789.558 304.102 782.329 288.834 777.239 C 283.212 775.365 262.624 780.495 262.624 774.743" style="stroke: rgb(0, 0, 0); fill: rgb(255, 0, 0);"/>
</svg>
